X: 0
T: The Trumpet
C: Trad
M: 4/4
L: 1/8
K: Gmaj
|: "G"(3GGG G2 (3GGG Gd|BGBd gdBG|"D"(3DDD D2 (3DDD DA|FDFA cAFA|
"G"(3GGG G2 (3GGG Gd|BGBd g2g2|"D"fagf "A"egfe|1 "D"d2d2 dcBA:|2 "D"d2de d2Bc||
|:"G"(3ddd d2 (3ddd d2|"Em"efgf "C"edcB|cded cBAG|"D"FGAG FDEF|
 "G"(3GGG G2 "G7/F" (3[=FB][FB][FB] [F2B2]|"C/E"(3[Ec][Ec][Ec] [E2c2] "A7/Eb" [_E3^c3] b|"D"agfe "C"dcBA|1 "G"G2B2 G2Bc :|2 "G"G2B2 G4|]